X:1
T:Oh! leave me to my sorrow
M:3/4
L:1/8
R:Air
B:Howe - Musician's Omnibus No. 3 (c. 1865, p. 234)
Z:AK/Fiddler's Companion
K:D
d>c|d2 D2 d>c|cBA zd>c|BAFD E>D|D4:|
F>G|A2d2 f>e|d2D2 d>c|B2 BABc|A4 f>e!D.C.!||

